src/assets/icons/filters/categories/house_stroke.svg

<svg width="45" height="48" viewBox="0 0 45 48" fill="none" xmlns="http://www.w3.org/2000/svg">
<path fill-rule="evenodd" clip-rule="evenodd" d="M32.5898 45.0008H29.9126V37.8735C29.9126 35.1855 27.7402 32.9992 25.0661 32.9992H19.8465C18.5577 33.0041 17.3235 33.5201 16.4146 34.4339C15.5057 35.3477 14.9965 36.5847 14.9985 37.8735V44.9992H12.3229C8.90098 44.9992 6.0504 42.1316 6.0504 38.6895V21.0008H38.8623V38.6911C38.8623 42.1332 36.0132 45.0008 32.5898 45.0008V45.0008ZM26.9304 45.0008H17.9807V37.8735C17.9807 36.8392 18.8169 35.9985 19.8465 35.9985H25.0677C26.0958 35.9985 26.9304 36.8392 26.9304 37.872V44.9992V45.0008ZM10.053 6.15174C10.0853 6.10597 10.128 6.06842 10.1774 6.04207C10.2269 6.01572 10.2819 6.00131 10.3379 6H13.5074V7.50039C13.5074 8.32877 14.1748 9.00077 14.9985 9.00077C15.1951 9.00016 15.3896 8.96082 15.5709 8.88499C15.7523 8.80917 15.9169 8.69834 16.0554 8.55885C16.1939 8.41936 16.3035 8.25395 16.378 8.07206C16.4525 7.89018 16.4904 7.69539 16.4896 7.49884L16.5841 3.00077L19.4734 3.09368V7.50039C19.4734 8.32877 20.1407 9.00077 20.9645 9.00077C21.161 9.00016 21.3555 8.96082 21.5369 8.88499C21.7182 8.80917 21.8828 8.69834 22.0213 8.55885C22.1598 8.41936 22.2694 8.25395 22.3439 8.07206C22.4184 7.89018 22.4564 7.69539 22.4556 7.49884V6H34.5763C34.742 6 34.8427 6.12387 34.8597 6.15329L41.7562 17.8219C41.7438 17.8421 41.6587 18 41.4698 18H3.44137C3.30202 18 3.21995 17.8839 3.18124 17.8932L10.053 6.15174V6.15174ZM37.5988 4.62348L44.4783 16.303C45.0481 17.2707 45.0403 18.4072 44.4876 19.3812C43.958 20.3164 43.3371 20.9094 41.8445 21.0457V38.6911C41.8445 43.8627 37.7304 48 32.5898 48H12.3229C7.18227 48 3.06666 43.8612 3.06666 38.6911V21.0457C1.57556 20.9094 0.953112 20.3288 0.423564 19.3935C-0.127662 18.4181 -0.152436 17.2723 0.417371 16.303L7.31234 4.62193C7.91931 3.59071 9.0775 3.00077 10.3379 3.00077H13.5276C13.6282 1.49884 14.9521 0 16.5841 0H19.3805C21.0094 0 22.3332 1.50039 22.437 3.00077H34.5763C35.8336 3.00077 36.9918 3.59071 37.5988 4.62348V4.62348ZM13.5059 25.5004C13.1095 25.502 12.7299 25.661 12.4506 25.9423C12.1713 26.2236 12.0151 26.6043 12.0163 27.0008V28.4996C12.0163 29.328 12.6837 30 13.5074 30C13.7039 29.9994 13.8982 29.9601 14.0795 29.8844C14.2607 29.8086 14.4253 29.6979 14.5637 29.5586C14.7022 29.4193 14.8119 29.2541 14.8865 29.0724C14.9611 28.8907 14.9991 28.696 14.9985 28.4996V27.0008C14.9993 26.8042 14.9614 26.6094 14.8869 26.4275C14.8124 26.2457 14.7028 26.0802 14.5643 25.9408C14.4258 25.8013 14.2612 25.6904 14.0798 25.6146C13.8985 25.5388 13.704 25.4994 13.5074 25.4988L13.5059 25.5004ZM19.4734 25.5004C19.2769 25.501 19.0826 25.5403 18.9013 25.616C18.7201 25.6917 18.5555 25.8024 18.4171 25.9418C18.2786 26.0811 18.169 26.2463 18.0944 26.428C18.0197 26.6097 17.9817 26.8043 17.9823 27.0008V28.4996C17.9823 29.328 18.6496 30 19.4734 30C19.6698 29.9994 19.8642 29.9601 20.0454 29.8844C20.2267 29.8086 20.3912 29.6979 20.5297 29.5586C20.6681 29.4193 20.7778 29.2541 20.8524 29.0724C20.927 28.8907 20.9651 28.696 20.9645 28.4996V27.0008C20.9653 26.8042 20.9274 26.6094 20.8528 26.4275C20.7783 26.2457 20.6687 26.0802 20.5302 25.9408C20.3917 25.8013 20.2271 25.6904 20.0458 25.6146C19.8644 25.5388 19.6699 25.4994 19.4734 25.4988V25.5004ZM25.4393 25.5004C25.2429 25.501 25.0485 25.5403 24.8673 25.616C24.686 25.6917 24.5215 25.8024 24.383 25.9418C24.2446 26.0811 24.1349 26.2463 24.0603 26.428C23.9857 26.6097 23.9476 26.8043 23.9482 27.0008V28.4996C23.9482 29.328 24.6156 30 25.4393 30C25.6357 29.9994 25.8301 29.9601 26.0113 29.8844C26.1926 29.8086 26.3571 29.6979 26.4956 29.5586C26.6341 29.4193 26.7437 29.2541 26.8183 29.0724C26.8929 28.8907 26.931 28.696 26.9304 28.4996V27.0008C26.9312 26.8042 26.8933 26.6094 26.8188 26.4275C26.7443 26.2457 26.6346 26.0802 26.4961 25.9408C26.3577 25.8013 26.193 25.6904 26.0117 25.6146C25.8304 25.5388 25.6359 25.4994 25.4393 25.4988V25.5004ZM31.4052 25.5004C31.2088 25.501 31.0144 25.5403 30.8332 25.616C30.652 25.6917 30.4874 25.8024 30.349 25.9418C30.2105 26.0811 30.1008 26.2463 30.0262 26.428C29.9516 26.6097 29.9135 26.8043 29.9141 27.0008V28.4996C29.9141 29.328 30.5815 30 31.4052 30C31.6017 29.9994 31.796 29.9601 31.9773 29.8844C32.1585 29.8086 32.3231 29.6979 32.4615 29.5586C32.6 29.4193 32.7097 29.2541 32.7843 29.0724C32.8589 28.8907 32.897 28.696 32.8963 28.4996V27.0008C32.8972 26.8042 32.8592 26.6094 32.7847 26.4275C32.7102 26.2457 32.6006 26.0802 32.4621 25.9408C32.3236 25.8013 32.159 25.6904 31.9776 25.6146C31.7963 25.5388 31.6018 25.4994 31.4052 25.4988V25.5004Z" fill="black"/>
</svg>

<svg width="45" height="48" viewBox="0 0 45 48" fill="none" xmlns="http://www.w3.org/2000/svg"><path fill-rule="evenodd" clip-rule="evenodd" d="M32.59 45h-2.677v-7.127c0-2.688-2.173-4.874-4.847-4.874h-5.22a4.867 4.867 0 00-4.848 4.874V45h-2.675C8.9 45 6.05 42.132 6.05 38.69V21.002h32.812v17.69c0 3.442-2.849 6.31-6.272 6.31zm-5.66 0h-8.95v-7.127c0-1.034.837-1.874 1.866-1.874h5.222a1.87 1.87 0 011.862 1.873v7.129zM10.053 6.153A.36.36 0 0110.338 6h3.17v1.5c0 .829.667 1.5 1.49 1.5A1.495 1.495 0 0016.49 7.5L16.584 3l2.89.093V7.5c0 .829.667 1.5 1.49 1.5A1.496 1.496 0 0022.457 7.5V6h12.12c.166 0 .267.124.284.153l6.896 11.669c-.012.02-.097.178-.286.178H3.44c-.139 0-.221-.116-.26-.107l6.872-11.741zm27.546-1.529l6.88 11.68c.57.968.561 2.104.009 3.078-.53.935-1.15 1.528-2.644 1.665V38.69c0 5.172-4.114 9.309-9.254 9.309H12.323c-5.14 0-9.256-4.139-9.256-9.309V21.046c-1.491-.137-2.114-.717-2.643-1.652-.552-.976-.576-2.122-.007-3.091L7.312 4.622C7.92 3.59 9.078 3 10.338 3h3.19C13.628 1.499 14.952 0 16.584 0h2.797c1.628 0 2.952 1.5 3.056 3h12.14c1.257 0 2.415.59 3.022 1.623zM13.506 25.5a1.496 1.496 0 00-1.49 1.5v1.5c0 .828.668 1.5 1.491 1.5A1.496 1.496 0 0015 28.5V27a1.496 1.496 0 00-1.492-1.501l-.001.001zm5.967 0a1.496 1.496 0 00-1.49 1.5v1.5c0 .828.667 1.5 1.49 1.5a1.496 1.496 0 001.492-1.5V27a1.495 1.495 0 00-1.492-1.501v.001zm5.966 0a1.496 1.496 0 00-1.49 1.5v1.5c0 .828.667 1.5 1.49 1.5a1.496 1.496 0 001.491-1.5V27a1.496 1.496 0 00-1.49-1.501v.001zm5.966 0a1.496 1.496 0 00-1.49 1.5v1.5c0 .828.666 1.5 1.49 1.5a1.496 1.496 0 001.491-1.5V27a1.495 1.495 0 00-1.49-1.501v.001z" fill="#000"/></svg>
